src/images/icons/social-media/location-blue.svg

<svg xmlns="http://www.w3.org/2000/svg" xmlns:xlink="http://www.w3.org/1999/xlink" width="405.333" height="405.333" viewBox="0 0 405.333 405.333">
  <defs>
    <clipPath id="clip-path">
      <rect id="Rectangle_2" data-name="Rectangle 2" width="405.333" height="405.333" fill="#fff"/>
    </clipPath>
  </defs>
  <g id="location-blue" clip-path="url(#clip-path)">
    <path id="Path_14" data-name="Path 14" d="M202.422,394.55c106.109,0,192.128-86.019,192.128-192.128S308.531,10.293,202.422,10.293,10.293,96.312,10.293,202.422,96.312,394.55,202.422,394.55Z" fill="none" stroke="#54b329" stroke-width="21.327"/>
    <path id="Path_15" data-name="Path 15" d="M202.912,294.565h-.981c-.49-1.96-36.269-62.736-39.21-67.637l-4.411-7.352c-8.822-15.684-20.1-33.328-20.1-51.463A66.157,66.157,0,0,1,149,131.354c2.451-3.431,4.9-5.882,6.862-8.823,1.47-1.96,2.45-1.96,4.411-3.921,3.431-3.431,8.822-6.861,13.723-9.312,22.056-10.783,46.562-8.332,66.167,5.391,1.961,1.471,2.941,2.451,4.411,3.431,1.471,1.961,2.941,2.451,4.411,3.921,7.352,9.313,6.862,7.842,12.254,19.115,2.94,5.882,5.881,17.154,5.881,25.977,0,20.585-10.783,34.8-20.1,51.463-8.822,16.664-21.075,36.759-30.878,52.933C214.185,274.96,203.4,292.605,202.912,294.565ZM122.531,168.113c0,9.312,1.961,17.154,3.921,24.506,6.862,19.6,53.914,94.1,67.637,119.591,4.9,8.332,12.254,8.332,16.665.49l58.325-100.476c14.213-23.526,18.624-51.463,6.861-77.44-6.861-16.174-18.134-28.427-33.328-37.739-23.526-13.723-56.365-14.214-79.4,0-11.763,6.862-21.566,15.194-28.428,27.447-2.94,4.411-2.94,3.921-5.391,9.8C124.982,143.117,122.531,155.37,122.531,168.113Z" fill="#54b329" stroke="#54b329" stroke-width="0.288" fill-rule="evenodd"/>
    <path id="Path_16" data-name="Path 16" d="M202.421,141.646c19.6,0,29.9,24.506,15.194,38.23-8.332,7.352-20.585,7.352-28.427,1.47C172.034,167.133,182.816,141.646,202.421,141.646Zm-37.739,21.566c0,33.818,40.68,51.463,64.206,27.447,25.487-25.487,5.882-64.7-26.467-64.7-15.193,0-27.937,8.822-34.308,22.056C166.642,151.449,164.682,158.31,164.682,163.212Z" fill="#54b329" stroke="#54b329" stroke-width="0.288" fill-rule="evenodd"/>
  </g>
</svg>

<svg width="406" height="406" viewBox="0 0 406 406" fill="none" xmlns="http://www.w3.org/2000/svg">
<g clip-path="url(#clip0_414_55)">
<path d="M202.422 394.55C308.531 394.55 394.55 308.531 394.55 202.422C394.55 96.3118 308.531 10.2927 202.422 10.2927C96.3118 10.2927 10.2927 96.3118 10.2927 202.422C10.2927 308.531 96.3118 394.55 202.422 394.55Z" stroke="#0296D2" stroke-width="21.3272"/>
<path fill-rule="evenodd" clip-rule="evenodd" d="M202.912 294.565H201.931C201.441 292.605 165.662 231.829 162.721 226.928C161.251 224.477 159.781 222.027 158.31 219.576C149.488 203.892 138.215 186.248 138.215 168.113C138.215 153.899 142.136 142.136 148.998 131.354C151.449 127.923 153.899 125.472 155.86 122.531C157.33 120.571 158.31 120.571 160.271 118.61C163.702 115.179 169.093 111.749 173.994 109.298C196.05 98.5152 220.556 100.966 240.161 114.689C242.122 116.16 243.102 117.14 244.572 118.12C246.043 120.081 247.513 120.571 248.983 122.041C256.335 131.354 255.845 129.883 261.237 141.156C264.177 147.038 267.118 158.31 267.118 167.133C267.118 187.718 256.335 201.932 247.023 218.596C238.201 235.26 225.948 255.355 216.145 271.529C214.185 274.96 203.402 292.605 202.912 294.565ZM122.531 168.113C122.531 177.425 124.492 185.267 126.452 192.619C133.314 212.224 180.366 286.723 194.089 312.21C198.991 320.542 206.343 320.542 210.754 312.7L269.079 212.224C283.292 188.698 287.703 160.761 275.94 134.784C269.079 118.61 257.806 106.357 242.612 97.0448C219.086 83.3214 186.247 82.8312 163.212 97.0448C151.449 103.907 141.646 112.239 134.784 124.492C131.844 128.903 131.844 128.413 129.393 134.294C124.982 143.117 122.531 155.37 122.531 168.113Z" fill="#0296D2" stroke="#0296D2" stroke-width="0.28792"/>
<path fill-rule="evenodd" clip-rule="evenodd" d="M202.421 141.646C222.026 141.646 232.319 166.152 217.615 179.876C209.283 187.228 197.03 187.228 189.188 181.346C172.034 167.133 182.816 141.646 202.421 141.646ZM164.682 163.212C164.682 197.03 205.362 214.675 228.888 190.659C254.375 165.172 234.77 125.962 202.421 125.962C187.228 125.962 174.484 134.784 168.113 148.018C166.642 151.449 164.682 158.31 164.682 163.212Z" fill="#0296D2" stroke="#0296D2" stroke-width="0.28792"/>
</g>
<defs>
<clipPath id="clip0_414_55">
<rect width="405.333" height="405.333" fill="white"/>
</clipPath>
</defs>
</svg>
